X: 125
T:McKennas No 2
M:4/4
L:1/8
C:Reel
H:Dermy Diamond
K:G
e3e3d B2{d}BA | GABc AD{F}ED | GDGA BgeB | dBAd BGBd :|!
fa{b}af gfed|(3Bcdef B2g2fg|eB~B2 gedB|{d}BAGA BAAg |!
fdaf gfed | (3Bcdeg {a}gfga | bg~g2 gfed | e3g {a}gfgf ||
